; generated by PrusaSlicer 2.0.0+win64 on 2020-05-19 at 16:01:33

; 

; external perimeters extrusion width = 0.45mm
; perimeters extrusion width = 0.45mm
; infill extrusion width = 0.45mm
; solid infill extrusion width = 0.45mm
; top infill extrusion width = 0.40mm
; first layer extrusion width = 0.42mm

M73 P0 R73
M73 Q0 S75
M201 X1000 Y1000 Z1000 E5000 ; sets maximum accelerations, mm/sec^2
M203 X200 Y200 Z12 E120 ; sets maximum feedrates, mm/sec
M204 P1250 R1250 T1250 ; sets acceleration (P, T) and retract acceleration (R), mm/sec^2
M205 X8.00 Y8.00 Z0.40 E1.50 ; sets the jerk limits, mm/sec
M205 S0 T0 ; sets the minimum extruding and travel feed rate, mm/sec
M107
M115 U3.8.1 ; tell printer latest fw version
G90 ; use absolute coordinates
M83 ; extruder relative mode
M104 S215 ; set extruder temp
M140 S60 ; set bed temp
M190 S60 ; wait for bed temp
M109 S215 ; wait for extruder temp
G28 W ; home all without mesh bed level
G80 ; mesh bed leveling
G1 Y-3.0 F1000.0 ; go outside print area
G92 E0.0
G1 X60.0 E9.0 F1000.0 ; intro line
M73 Q0 S75
M73 P0 R73
G1 X100.0 E12.5 F1000.0 ; intro line
G92 E0.0
M221 S95
M900 K30 ; Filament gcode
G21 ; set units to millimeters
G90 ; use absolute coordinates
M83 ; use relative distances for extrusion
;BEFORE_LAYER_CHANGE
G92 E0.0
;0.2


G1 E-0.80000 F2100.00000
G1 Z0.600 F10800.000
;AFTER_LAYER_CHANGE
;0.2
G1 X64.127 Y77.993
G1 Z0.200
G1 E0.80000 F2100.00000
M204 S1000
G1 F1200
G1 X64.998 Y77.811 E0.02788
G1 X185.004 Y77.811 E3.76270
G1 X185.834 Y77.976 E0.02653
G1 X186.536 Y78.441 E0.02642
G1 X187.011 Y79.137 E0.02642
G1 X187.188 Y79.965 E0.02653
G1 X187.188 Y130.055 E1.57053
G1 X187.085 Y130.665 E0.01942
G1 X186.815 Y131.223 E0.01942
G1 X186.400 Y131.682 E0.01942
G1 X185.873 Y132.007 E0.01942
G1 X185.002 Y132.189 E0.02788
G1 X64.982 Y132.188 E3.76316
G1 X64.362 Y132.094 E0.01964
G1 X63.792 Y131.825 E0.01976
G1 X63.325 Y131.408 E0.01964
G1 X62.993 Y130.873 E0.01976
G1 X62.811 Y130.006 E0.02777
G1 X62.812 Y79.952 E1.56939
G1 X62.913 Y79.342 E0.01942
G1 X63.183 Y78.780 E0.01953
G1 X63.600 Y78.318 E0.01953
G1 X64.076 Y78.024 E0.01753
G1 F8640
G1 X64.998 Y77.811 E-0.21840
G1 X67.343 Y77.811 E-0.54160
G1 E-0.04000 F2100.00000
G1 Z0.800 F10800.000
G1 X88.704 Y114.755
G1 Z0.200
G1 E0.80000 F2100.00000
G1 F1200
G1 X89.329 Y114.496 E0.02122
G1 X89.980 Y114.410 E0.02059
G1 X90.669 Y114.495 E0.02174
G1 X91.296 Y114.755 E0.02130
G1 X91.833 Y115.167 E0.02122
G1 X92.245 Y115.704 E0.02122
G1 X92.496 Y116.311 E0.02059
G1 X92.592 Y116.998 E0.02174
G1 X92.504 Y117.671 E0.02130
G1 X92.245 Y118.296 E0.02122
G1 X91.833 Y118.833 E0.02122
G1 X91.296 Y119.245 E0.02122
G1 X90.689 Y119.496 E0.02059
G1 X90.002 Y119.592 E0.02174
G1 X89.329 Y119.504 E0.02130
G1 X88.704 Y119.245 E0.02122
G1 X88.167 Y118.833 E0.02122
G1 X87.755 Y118.296 E0.02122
G1 X87.504 Y117.689 E0.02059
G1 X87.408 Y117.002 E0.02174
G1 X87.496 Y116.329 E0.02130
G1 X87.755 Y115.704 E0.02122
G1 X88.167 Y115.167 E0.02122
G1 X88.656 Y114.792 E0.01934
G1 X88.886 Y115.091 F10800.000
G1 F1200
G1 X89.428 Y114.864 E0.01842
G1 X89.982 Y114.791 E0.01753
G1 X90.572 Y114.863 E0.01863
G1 X91.106 Y115.085 E0.01813
G1 X91.564 Y115.436 E0.01810
G1 X91.915 Y115.894 E0.01810
G1 X92.129 Y116.411 E0.01753
G1 X92.212 Y116.999 E0.01863
G1 X92.136 Y117.572 E0.01813
G1 X91.915 Y118.106 E0.01810
G1 X91.564 Y118.564 E0.01810
G1 X91.106 Y118.915 E0.01810
G1 X90.589 Y119.129 E0.01753
G1 X90.001 Y119.212 E0.01863
G1 X89.428 Y119.136 E0.01813
G1 X88.894 Y118.915 E0.01810
G1 X88.436 Y118.564 E0.01810
G1 X88.085 Y118.106 E0.01810
G1 X87.871 Y117.589 E0.01753
G1 X87.788 Y117.001 E0.01863
G1 X87.864 Y116.428 E0.01813
G1 X88.085 Y115.894 E0.01810
G1 X88.436 Y115.436 E0.01810
G1 X88.838 Y115.127 E0.01590
G1 X88.884 Y114.691 F10800.000
G1 F8640
G1 X89.428 Y114.864 E-0.14907
G1 X89.982 Y114.791 E-0.12910
G1 X90.572 Y114.863 E-0.13721
G1 X91.106 Y115.085 E-0.13353
G1 X91.564 Y115.436 E-0.13332
G1 X91.769 Y115.703 E-0.07776
G1 E-0.04000 F2100.00000
G1 Z0.800 F10800.000
G1 X77.245 Y106.296
G1 Z0.200
G1 E0.80000 F2100.00000
G1 F1200
G1 X76.833 Y106.833 E0.02122
G1 X76.296 Y107.245 E0.02122
G1 X75.689 Y107.496 E0.02059
G1 X75.002 Y107.592 E0.02174
G1 X74.329 Y107.504 E0.02130
G1 X73.704 Y107.245 E0.02122
G1 X73.167 Y106.833 E0.02122
G1 X72.755 Y106.296 E0.02122
G1 X72.504 Y105.689 E0.02059
G1 X72.408 Y105.002 E0.02174
G1 X72.496 Y104.329 E0.02130
G1 X72.755 Y103.704 E0.02122
G1 X73.167 Y103.167 E0.02122
G1 X73.704 Y102.755 E0.02122
G1 X74.329 Y102.496 E0.02122
G1 X74.980 Y102.410 E0.02059
G1 X75.669 Y102.495 E0.02174
G1 X76.296 Y102.755 E0.02130
G1 X76.833 Y103.167 E0.02122
G1 X77.245 Y103.704 E0.02122
G1 X77.496 Y104.311 E0.02059
G1 X77.592 Y104.998 E0.02174
G1 X77.504 Y105.671 E0.02130
G1 X77.268 Y106.241 E0.01934
G1 X76.919 Y106.096 F10800.000
G1 F1200
G1 X76.564 Y106.564 E0.01842
G1 X76.106 Y106.915 E0.01810
G1 X75.589 Y107.129 E0.01753
G1 X75.001 Y107.212 E0.01863
G1 X74.428 Y107.136 E0.01813
G1 X73.894 Y106.915 E0.01810
G1 X73.436 Y106.564 E0.01810
G1 X73.085 Y106.106 E0.01810
G1 X72.871 Y105.589 E0.01753
G1 X72.788 Y105.001 E0.01863
G1 X72.864 Y104.428 E0.01813
G1 X73.085 Y103.894 E0.01810
G1 X73.436 Y103.436 E0.01810
G1 X73.894 Y103.085 E0.01810
G1 X74.428 Y102.864 E0.01810
G1 X74.982 Y102.791 E0.01753
G1 X75.572 Y102.863 E0.01863
G1 X76.106 Y103.085 E0.01813
G1 X76.564 Y103.436 E0.01810
G1 X76.915 Y103.894 E0.01810
G1 X77.129 Y104.411 E0.01753
G1 X77.212 Y104.999 E0.01863
G1 X77.136 Y105.572 E0.01813
G1 X76.942 Y106.041 E0.01590
G1 X77.121 Y106.442 F10800.000
G1 F8640
G1 X76.564 Y106.564 E-0.14907
G1 X76.106 Y106.915 E-0.13332
G1 X75.589 Y107.129 E-0.12910
G1 X75.001 Y107.212 E-0.13721
G1 X74.428 Y107.136 E-0.13353
G1 X74.116 Y107.008 E-0.07777
G1 E-0.04000 F2100.00000
G1 Z0.800 F10800.000
G1 X88.167 Y93.833
G1 Z0.200
G1 E0.80000 F2100.00000
G1 F1200
G1 X87.755 Y93.296 E0.02122
G1 X87.504 Y92.689 E0.02059
G1 X87.408 Y92.002 E0.02174
G1 X87.496 Y91.329 E0.02130
G1 X87.755 Y90.704 E0.02122
G1 X88.167 Y90.167 E0.02122
G1 X88.704 Y89.755 E0.02122
G1 X89.329 Y89.496 E0.02122
G1 X89.980 Y89.410 E0.02059
G1 X90.669 Y89.495 E0.02174
G1 X91.296 Y89.755 E0.02130
G1 X91.833 Y90.167 E0.02122
G1 X92.245 Y90.704 E0.02122
G1 X92.496 Y91.311 E0.02059
G1 X92.592 Y91.998 E0.02174
G1 X92.504 Y92.671 E0.02130
G1 X92.245 Y93.296 E0.02122
G1 X91.833 Y93.833 E0.02122
G1 X91.296 Y94.245 E0.02122
G1 X90.671 Y94.504 E0.02122
G1 X90.000 Y94.592 E0.02122
G1 X89.329 Y94.504 E0.02122
G1 X88.704 Y94.245 E0.02122
G1 X88.215 Y93.869 E0.01934
G1 X88.444 Y93.570 F10800.000
G1 F1200
G1 X88.085 Y93.106 E0.01842
G1 X87.871 Y92.589 E0.01753
G1 X87.788 Y92.001 E0.01863
G1 X87.864 Y91.428 E0.01813
G1 X88.085 Y90.894 E0.01810
G1 X88.436 Y90.436 E0.01810
G1 X88.894 Y90.085 E0.01810
G1 X89.428 Y89.864 E0.01810
G1 X89.982 Y89.791 E0.01753
G1 X90.572 Y89.863 E0.01863
G1 X91.106 Y90.085 E0.01813
G1 X91.564 Y90.436 E0.01810
G1 X91.915 Y90.894 E0.01810
G1 X92.129 Y91.411 E0.01753
G1 X92.212 Y91.999 E0.01863
G1 X92.136 Y92.572 E0.01813
G1 X91.915 Y93.106 E0.01810
G1 X91.564 Y93.564 E0.01810
G1 X91.106 Y93.915 E0.01810
G1 X90.572 Y94.136 E0.01810
G1 X90.000 Y94.212 E0.01810
G1 X89.428 Y94.136 E0.01810
G1 X88.894 Y93.915 E0.01810
G1 X88.492 Y93.607 E0.01590
G1 X88.058 Y93.675 F10800.000
G1 F8640
G1 X88.085 Y93.106 E-0.14907
G1 X87.871 Y92.589 E-0.12910
G1 X87.788 Y92.001 E-0.13721
G1 X87.864 Y91.428 E-0.13353
G1 X88.085 Y90.894 E-0.13332
G1 X88.290 Y90.627 E-0.07777
G1 E-0.04000 F2100.00000
G1 Z0.800 F10800.000
G1 X157.408 Y92.002
G1 Z0.200
G1 E0.80000 F2100.00000
G1 F1200
G1 X157.496 Y91.329 E0.02130
G1 X157.755 Y90.704 E0.02122
G1 X158.167 Y90.167 E0.02122
G1 X158.704 Y89.755 E0.02122
G1 X159.329 Y89.496 E0.02122
G1 X159.980 Y89.410 E0.02059
G1 X160.669 Y89.495 E0.02174
G1 X161.296 Y89.755 E0.02130
G1 X161.833 Y90.167 E0.02122
G1 X162.245 Y90.704 E0.02122
G1 X162.496 Y91.311 E0.02059
G1 X162.592 Y91.998 E0.02174
G1 X162.504 Y92.671 E0.02130
G1 X162.245 Y93.296 E0.02122
G1 X161.833 Y93.833 E0.02122
G1 X161.296 Y94.245 E0.02122
G1 X160.671 Y94.504 E0.02122
G1 X160.000 Y94.592 E0.02122
G1 X159.329 Y94.504 E0.02122
G1 X158.704 Y94.245 E0.02122
G1 X158.167 Y93.833 E0.02122
G1 X157.755 Y93.296 E0.02122
G1 X157.504 Y92.689 E0.02059
G1 X157.416 Y92.062 E0.01986
G1 X157.789 Y92.010 F10800.000
G1 F1200
G1 X157.864 Y91.428 E0.01840
G1 X158.085 Y90.894 E0.01810
G1 X158.436 Y90.436 E0.01810
G1 X158.894 Y90.085 E0.01810
G1 X159.428 Y89.864 E0.01810
G1 X159.982 Y89.791 E0.01753
G1 X160.572 Y89.863 E0.01863
G1 X161.106 Y90.085 E0.01813
G1 X161.564 Y90.436 E0.01810
G1 X161.915 Y90.894 E0.01810
G1 X162.129 Y91.411 E0.01753
G1 X162.212 Y91.999 E0.01863
G1 X162.136 Y92.572 E0.01813
G1 X161.915 Y93.106 E0.01810
G1 X161.564 Y93.564 E0.01810
G1 X161.106 Y93.915 E0.01810
G1 X160.572 Y94.136 E0.01810
G1 X160.000 Y94.212 E0.01810
G1 X159.428 Y94.136 E0.01810
G1 X158.894 Y93.915 E0.01810
G1 X158.436 Y93.564 E0.01810
G1 X158.085 Y93.106 E0.01810
G1 X157.871 Y92.589 E0.01753
G1 X157.798 Y92.069 E0.01648
G1 X157.442 Y91.811 F10800.000
G1 F8640
G1 X157.864 Y91.428 E-0.14889
G1 X158.085 Y90.894 E-0.13332
G1 X158.436 Y90.436 E-0.13332
G1 X158.894 Y90.085 E-0.13332
G1 X159.428 Y89.864 E-0.13332
G1 X159.762 Y89.820 E-0.07782
G1 E-0.04000 F2100.00000
G1 Z0.800 F10800.000
G1 X172.755 Y103.704
G1 Z0.200
G1 E0.80000 F2100.00000
G1 F1200
G1 X173.167 Y103.167 E0.02122
G1 X173.704 Y102.755 E0.02122
G1 X174.329 Y102.496 E0.02122
G1 X174.980 Y102.410 E0.02059
G1 X175.669 Y102.495 E0.02174
G1 X176.296 Y102.755 E0.02130
G1 X176.833 Y103.167 E0.02122
G1 X177.245 Y103.704 E0.02122
G1 X177.496 Y104.311 E0.02059
G1 X177.592 Y104.998 E0.02174
G1 X177.504 Y105.671 E0.02130
G1 X177.245 Y106.296 E0.02122
G1 X176.833 Y106.833 E0.02122
G1 X176.296 Y107.245 E0.02122
G1 X175.689 Y107.496 E0.02059
G1 X175.002 Y107.592 E0.02174
G1 X174.329 Y107.504 E0.02130
G1 X173.704 Y107.245 E0.02122
G1 X173.167 Y106.833 E0.02122
G1 X172.755 Y106.296 E0.02122
G1 X172.504 Y105.689 E0.02059
G1 X172.408 Y105.002 E0.02174
G1 X172.496 Y104.329 E0.02130
G1 X172.732 Y103.759 E0.01934
G1 X173.081 Y103.904 F10800.000
G1 F1200
G1 X173.436 Y103.436 E0.01842
G1 X173.894 Y103.085 E0.01810
G1 X174.428 Y102.864 E0.01810
G1 X174.982 Y102.791 E0.01753
G1 X175.572 Y102.863 E0.01863
G1 X176.106 Y103.085 E0.01813
G1 X176.564 Y103.436 E0.01810
G1 X176.915 Y103.894 E0.01810
G1 X177.129 Y104.411 E0.01753
G1 X177.212 Y104.999 E0.01863
G1 X177.136 Y105.572 E0.01813
G1 X176.915 Y106.106 E0.01810
G1 X176.564 Y106.564 E0.01810
G1 X176.106 Y106.915 E0.01810
G1 X175.589 Y107.129 E0.01753
G1 X175.001 Y107.212 E0.01863
G1 X174.428 Y107.136 E0.01813
G1 X173.894 Y106.915 E0.01810
G1 X173.436 Y106.564 E0.01810
G1 X173.085 Y106.106 E0.01810
G1 X172.871 Y105.589 E0.01753
G1 X172.788 Y105.001 E0.01863
G1 X172.864 Y104.428 E0.01813
G1 X173.058 Y103.959 E0.01590
G1 X172.879 Y103.558 F10800.000
G1 F8640
G1 X173.436 Y103.436 E-0.14907
G1 X173.894 Y103.085 E-0.13332
G1 X174.428 Y102.864 E-0.13332
G1 X174.982 Y102.791 E-0.12910
G1 X175.572 Y102.863 E-0.13721
G1 X175.884 Y102.992 E-0.07797
G1 E-0.04000 F2100.00000
G1 Z0.800 F10800.000
G1 X161.833 Y115.167
G1 Z0.200
G1 E0.80000 F2100.00000
G1 F1200
G1 X162.245 Y115.704 E0.02122
G1 X162.496 Y116.311 E0.02059
G1 X162.592 Y116.998 E0.02174
G1 X162.504 Y117.671 E0.02130
G1 X162.245 Y118.296 E0.02122
G1 X161.833 Y118.833 E0.02122
G1 X161.296 Y119.245 E0.02122
G1 X160.689 Y119.496 E0.02059
G1 X160.002 Y119.592 E0.02174
G1 X159.329 Y119.504 E0.02130
G1 X158.704 Y119.245 E0.02122
G1 X158.167 Y118.833 E0.02122
G1 X157.755 Y118.296 E0.02122
G1 X157.504 Y117.689 E0.02059
G1 X157.408 Y117.002 E0.02174
G1 X157.496 Y116.329 E0.02130
G1 X157.755 Y115.704 E0.02122
G1 X158.167 Y115.167 E0.02122
G1 X158.704 Y114.755 E0.02122
G1 X159.329 Y114.496 E0.02122
G1 X159.980 Y114.410 E0.02059
G1 X160.669 Y114.495 E0.02174
G1 X161.296 Y114.755 E0.02130
G1 X161.785 Y115.131 E0.01934
G1 X161.556 Y115.430 F10800.000
G1 F1200
G1 X161.915 Y115.894 E0.01842
G1 X162.129 Y116.411 E0.01753
G1 X162.212 Y116.999 E0.01863
G1 X162.136 Y117.572 E0.01813
G1 X161.915 Y118.106 E0.01810
G1 X161.564 Y118.564 E0.01810
G1 X161.106 Y118.915 E0.01810
G1 X160.589 Y119.129 E0.01753
G1 X160.001 Y119.212 E0.01863
G1 X159.428 Y119.136 E0.01813
G1 X158.894 Y118.915 E0.01810
G1 X158.436 Y118.564 E0.01810
G1 X158.085 Y118.106 E0.01810
G1 X157.871 Y117.589 E0.01753
G1 X157.788 Y117.001 E0.01863
G1 X157.864 Y116.428 E0.01813
G1 X158.085 Y115.894 E0.01810
G1 X158.436 Y115.436 E0.01810
G1 X158.894 Y115.085 E0.01810
G1 X159.428 Y114.864 E0.01810
G1 X159.982 Y114.791 E0.01753
G1 X160.572 Y114.863 E0.01863
G1 X161.106 Y115.085 E0.01813
G1 X161.508 Y115.393 E0.01590
G1 X161.942 Y115.325 F10800.000
G1 F8640
G1 X161.915 Y115.894 E-0.14907
G1 X162.129 Y116.411 E-0.12910
G1 X162.212 Y116.999 E-0.13721
G1 X162.136 Y117.572 E-0.13353
G1 X161.915 Y118.106 E-0.13332
G1 X161.710 Y118.373 E-0.07777
G1 E-0.04000 F2100.00000
G1 Z0.800 F10800.000
G1 X184.413 Y129.413
G1 Z0.200
G1 E0.80000 F2100.00000
G1 F1200
G1 X65.587 Y129.413 E3.72570
G1 X65.587 Y80.587 E1.53090
G1 X184.413 Y80.587 E3.72570
G1 X184.413 Y129.353 E1.52902
G1 X184.790 Y129.790 F10800.000
G1 F1200
G1 X65.210 Y129.790 E3.74935
G1 X65.210 Y80.210 E1.55455
M73 Q1 S74
M73 P1 R72
G1 X184.790 Y80.210 E3.74935
G1 X184.790 Y129.730 E1.55266
G1 X184.393 Y129.738 F10800.000
G1 F8640
G1 X181.499 Y129.732 E-0.76000
G1 E-0.04000 F2100.00000
G1 Z0.800 F10800.000
G1 X184.300 Y121.011
G1 Z0.200
G1 E0.80000 F2100.00000
G1 F1200
G1 X144.158 Y80.870 E1.78379
G1 X143.624 Y80.870 E0.01679
G1 X184.130 Y121.376 E1.80000
G1 X184.130 Y121.911 E0.01679
G1 X143.089 Y80.870 E1.82375
G1 X142.555 Y80.870 E0.01679
G1 X184.130 Y122.445 E1.84749
G1 X184.130 Y122.979 E0.01679
G1 X142.021 Y80.870 E1.87124
G1 X141.486 Y80.870 E0.01679
G1 X184.130 Y123.514 E1.89499
G1 X184.130 Y124.048 E0.01679
G1 X140.952 Y80.870 E1.91874
G1 X140.417 Y80.870 E0.01679
G1 X184.130 Y124.583 E1.94249
G1 X184.130 Y125.117 E0.01679
G1 X139.883 Y80.870 E1.96624
G1 X139.348 Y80.870 E0.01679
G1 X184.130 Y125.652 E1.98999
G1 X184.130 Y126.186 E0.01679
G1 X138.814 Y80.870 E2.01373
G1 X138.280 Y80.870 E0.01679
G1 X184.130 Y126.720 E2.03748
G1 X184.130 Y127.255 E0.01679
G1 X137.745 Y80.870 E2.06123
G1 X137.211 Y80.870 E0.01679
G1 X184.130 Y127.789 E2.08498
G1 X184.130 Y128.324 E0.01679
G1 X136.676 Y80.870 E2.10873
G1 X136.142 Y80.870 E0.01679
G1 X184.130 Y128.858 E2.13248
G1 X184.130 Y129.130 E0.00855
G1 X183.868 Y129.130 E0.00825
G1 X135.607 Y80.870 E2.14456
M73 Q2 S73
M73 P2 R71
G1 X135.073 Y80.870 E0.01679
G1 X183.333 Y129.130 E2.14456
G1 X182.799 Y129.130 E0.01679
G1 X134.539 Y80.870 E2.14456
G1 X134.004 Y80.870 E0.01679
G1 X182.264 Y129.130 E2.14456
G1 X181.730 Y129.130 E0.01679
G1 X133.470 Y80.870 E2.14456
G1 X132.935 Y80.870 E0.01679
G1 X181.196 Y129.130 E2.14456
G1 X180.661 Y129.130 E0.01679
G1 X132.401 Y80.870 E2.14456
G1 X131.866 Y80.870 E0.01679
G1 X180.127 Y129.130 E2.14456
G1 X179.592 Y129.130 E0.01679
G1 X131.332 Y80.870 E2.14456
G1 X130.798 Y80.870 E0.01679
G1 X179.058 Y129.130 E2.14456
G1 X178.523 Y129.130 E0.01679
G1 X130.263 Y80.870 E2.14456
G1 X129.729 Y80.870 E0.01679
G1 X177.989 Y129.130 E2.14456
G1 X177.455 Y129.130 E0.01679
G1 X129.194 Y80.870 E2.14456
G1 X128.660 Y80.870 E0.01679
G1 X176.920 Y129.130 E2.14456
G1 X176.386 Y129.130 E0.01679
G1 X128.126 Y80.870 E2.14456
G1 X127.591 Y80.870 E0.01679
G1 X161.081 Y114.360 E1.48822
G1 X160.741 Y114.219 E0.01157
G1 X160.359 Y114.172 E0.01210
G1 X127.057 Y80.870 E1.47987
G1 X126.522 Y80.870 E0.01679
G1 X159.801 Y114.149 E1.47883
G1 X159.329 Y114.211 E0.01497
G1 X125.988 Y80.870 E1.48159
G1 X125.453 Y80.870 E0.01679
G1 X158.936 Y114.353 E1.48790
M73 Q4 S72
M73 P4 R70
G1 X158.559 Y114.510 E0.01284
G1 X124.919 Y80.870 E1.49488
G1 X124.385 Y80.870 E0.01679
G1 X158.257 Y114.742 E1.50519
G1 X157.957 Y114.977 E0.01196
G1 X123.850 Y80.870 E1.51561
G1 X123.316 Y80.870 E0.01679
G1 X157.725 Y115.279 E1.52905
G1 X157.498 Y115.586 E0.01201
G1 X122.781 Y80.870 E1.54271
G1 X122.247 Y80.870 E0.01679
G1 X157.341 Y115.964 E1.55950
G1 X157.221 Y116.255 E0.00990
G1 X157.206 Y116.364 E0.00344
