; generated by PrusaSlicer 2.0.0+win64 on 2020-05-19 at 12:16:37

; 

; external perimeters extrusion width = 0.45mm
; perimeters extrusion width = 0.45mm
; infill extrusion width = 0.45mm
; solid infill extrusion width = 0.45mm
; top infill extrusion width = 0.40mm
; first layer extrusion width = 0.42mm

M73 P0 R51
M73 Q0 S52
M201 X1000 Y1000 Z1000 E5000 ; sets maximum accelerations, mm/sec^2
M203 X200 Y200 Z12 E120 ; sets maximum feedrates, mm/sec
M204 P1250 R1250 T1250 ; sets acceleration (P, T) and retract acceleration (R), mm/sec^2
M205 X8.00 Y8.00 Z0.40 E1.50 ; sets the jerk limits, mm/sec
M205 S0 T0 ; sets the minimum extruding and travel feed rate, mm/sec
M107
M115 U3.8.1 ; tell printer latest fw version
G90 ; use absolute coordinates
M83 ; extruder relative mode
M104 S215 ; set extruder temp
M140 S60 ; set bed temp
M190 S60 ; wait for bed temp
M109 S215 ; wait for extruder temp
G28 W ; home all without mesh bed level
G80 ; mesh bed leveling
G1 Y-3.0 F1000.0 ; go outside print area
G92 E0.0
G1 X60.0 E9.0 F1000.0 ; intro line
M73 Q0 S52
M73 P0 R51
G1 X100.0 E12.5 F1000.0 ; intro line
G92 E0.0
M221 S95
M900 K30 ; Filament gcode
G21 ; set units to millimeters
G90 ; use absolute coordinates
M83 ; use relative distances for extrusion
;BEFORE_LAYER_CHANGE
G92 E0.0
;0.2


G1 E-0.80000 F2100.00000
G1 Z0.600 F10800.000
;AFTER_LAYER_CHANGE
;0.2
G1 X56.679 Y106.970
G1 Z0.200
G1 E0.80000 F2100.00000
M204 S1000
G1 F1200
G1 X57.625 Y106.806 E0.03012
G1 X130.644 Y106.806 E2.28944
G1 X131.259 Y106.877 E0.01941
G1 X131.854 Y107.067 E0.01959
G1 X132.765 Y107.673 E0.03430
G1 X133.204 Y108.219 E0.02199
G1 X133.438 Y108.649 E0.01532
G1 X133.693 Y109.787 E0.03657
G1 X133.694 Y156.919 E1.47778
G1 X133.573 Y157.680 E0.02417
G1 X133.378 Y158.183 E0.01692
G1 X133.001 Y158.784 E0.02225
G1 X132.391 Y159.353 E0.02615
G1 X131.601 Y159.752 E0.02776
G1 X130.654 Y159.915 E0.03011
G1 X57.618 Y159.915 E2.29000
G1 X56.773 Y159.776 E0.02686
G1 X56.228 Y159.562 E0.01836
G1 X55.578 Y159.104 E0.02492
G1 X55.158 Y158.628 E0.01991
G1 X54.717 Y157.700 E0.03223
G1 X54.585 Y156.884 E0.02589
G1 X54.586 Y109.824 E1.47556
G1 X54.680 Y109.142 E0.02158
G1 X54.964 Y108.403 E0.02482
G1 X55.422 Y107.767 E0.02457
G1 X56.005 Y107.292 E0.02358
G1 X56.625 Y106.996 E0.02152
G1 F8640
G1 X57.625 Y106.806 E-0.23517
G1 X59.898 Y106.806 E-0.52483
G1 E-0.04000 F2100.00000
G1 Z0.800 F10800.000
G1 X121.895 Y144.564
G1 Z0.200
G1 E0.80000 F2100.00000
G1 F1200
G1 X122.307 Y144.027 E0.02122
G1 X122.844 Y143.615 E0.02122
G1 X123.469 Y143.356 E0.02122
G1 X124.120 Y143.271 E0.02059
G1 X124.808 Y143.355 E0.02174
G1 X125.436 Y143.615 E0.02130
G1 X125.973 Y144.027 E0.02122
G1 X126.385 Y144.564 E0.02122
G1 X126.636 Y145.171 E0.02059
G1 X126.732 Y145.858 E0.02174
G1 X126.644 Y146.531 E0.02130
G1 X126.385 Y147.156 E0.02122
G1 X125.973 Y147.693 E0.02122
G1 X125.436 Y148.105 E0.02122
G1 X124.829 Y148.356 E0.02059
G1 X124.142 Y148.453 E0.02174
G1 X123.469 Y148.364 E0.02130
G1 X122.844 Y148.105 E0.02122
G1 X122.307 Y147.693 E0.02122
G1 X121.895 Y147.156 E0.02122
G1 X121.644 Y146.549 E0.02059
G1 X121.547 Y145.863 E0.02174
G1 X121.636 Y145.189 E0.02130
G1 X121.872 Y144.619 E0.01934
G1 X122.220 Y144.764 F10800.000
G1 F1200
G1 X122.576 Y144.296 E0.01842
G1 X123.034 Y143.945 E0.01810
G1 X123.567 Y143.724 E0.01810
G1 X124.122 Y143.651 E0.01753
G1 X124.712 Y143.723 E0.01863
G1 X125.246 Y143.945 E0.01813
G1 X125.704 Y144.296 E0.01810
G1 X126.055 Y144.754 E0.01810
G1 X126.269 Y145.271 E0.01753
G1 X126.352 Y145.859 E0.01863
G1 X126.276 Y146.433 E0.01813
G1 X126.055 Y146.966 E0.01810
G1 X125.704 Y147.424 E0.01810
G1 X125.246 Y147.776 E0.01810
G1 X124.729 Y147.990 E0.01753
G1 X124.141 Y148.072 E0.01863
G1 X123.567 Y147.997 E0.01813
G1 X123.034 Y147.776 E0.01810
G1 X122.576 Y147.424 E0.01810
G1 X122.224 Y146.966 E0.01810
G1 X122.010 Y146.449 E0.01753
G1 X121.928 Y145.861 E0.01863
G1 X122.003 Y145.288 E0.01813
G1 X122.197 Y144.819 E0.01590
G1 X122.019 Y144.418 F10800.000
G1 F8640
G1 X122.576 Y144.296 E-0.14907
G1 X123.034 Y143.945 E-0.13332
G1 X123.567 Y143.724 E-0.13332
G1 X124.122 Y143.651 E-0.12910
G1 X124.712 Y143.723 E-0.13721
G1 X125.024 Y143.853 E-0.07797
G1 E-0.04000 F2100.00000
G1 Z0.800 F10800.000
G1 X124.140 Y123.452
G1 Z0.200
G1 E0.80000 F2100.00000
G1 F1200
G1 X123.469 Y123.364 E0.02122
G1 X122.844 Y123.105 E0.02122
G1 X122.307 Y122.693 E0.02122
G1 X121.895 Y122.156 E0.02122
G1 X121.644 Y121.549 E0.02059
G1 X121.547 Y120.863 E0.02174
G1 X121.636 Y120.189 E0.02130
G1 X121.895 Y119.564 E0.02122
G1 X122.307 Y119.027 E0.02122
G1 X122.844 Y118.615 E0.02122
G1 X123.469 Y118.356 E0.02122
G1 X124.120 Y118.271 E0.02059
G1 X124.808 Y118.355 E0.02174
G1 X125.436 Y118.615 E0.02130
G1 X125.973 Y119.027 E0.02122
G1 X126.385 Y119.564 E0.02122
G1 X126.636 Y120.171 E0.02059
G1 X126.732 Y120.858 E0.02174
G1 X126.644 Y121.531 E0.02130
G1 X126.385 Y122.156 E0.02122
G1 X125.973 Y122.693 E0.02122
G1 X125.436 Y123.105 E0.02122
G1 X124.811 Y123.364 E0.02122
G1 X124.199 Y123.444 E0.01934
G1 X124.150 Y123.071 F10800.000
G1 F1200
G1 X123.567 Y122.997 E0.01842
G1 X123.034 Y122.776 E0.01810
G1 X122.576 Y122.424 E0.01810
G1 X122.224 Y121.966 E0.01810
G1 X122.010 Y121.449 E0.01753
G1 X121.928 Y120.861 E0.01863
G1 X122.003 Y120.288 E0.01813
G1 X122.224 Y119.754 E0.01810
G1 X122.576 Y119.296 E0.01810
G1 X123.034 Y118.945 E0.01810
G1 X123.567 Y118.724 E0.01810
G1 X124.122 Y118.651 E0.01753
G1 X124.712 Y118.723 E0.01863
G1 X125.246 Y118.945 E0.01813
G1 X125.704 Y119.296 E0.01810
G1 X126.055 Y119.754 E0.01810
G1 X126.269 Y120.271 E0.01753
G1 X126.352 Y120.859 E0.01863
G1 X126.276 Y121.433 E0.01813
G1 X126.055 Y121.966 E0.01810
G1 X125.704 Y122.424 E0.01810
G1 X125.246 Y122.776 E0.01810
G1 X124.712 Y122.997 E0.01810
G1 X124.210 Y123.063 E0.01590
G1 X123.951 Y123.418 F10800.000
G1 F8640
G1 X123.567 Y122.997 E-0.14907
G1 X123.034 Y122.776 E-0.13332
G1 X122.576 Y122.424 E-0.13332
G1 X122.224 Y121.966 E-0.13332
G1 X122.010 Y121.449 E-0.12910
G1 X121.961 Y121.098 E-0.08186
G1 E-0.04000 F2100.00000
G1 Z0.800 F10800.000
G1 X66.732 Y120.858
G1 Z0.200
G1 E0.80000 F2100.00000
G1 F1200
G1 X66.644 Y121.531 E0.02130
G1 X66.385 Y122.156 E0.02122
G1 X65.973 Y122.693 E0.02122
G1 X65.436 Y123.105 E0.02122
G1 X64.811 Y123.364 E0.02122
G1 X64.140 Y123.452 E0.02122
G1 X63.469 Y123.364 E0.02122
G1 X62.844 Y123.105 E0.02122
G1 X62.307 Y122.693 E0.02122
G1 X61.895 Y122.156 E0.02122
G1 X61.644 Y121.549 E0.02059
G1 X61.547 Y120.863 E0.02174
G1 X61.636 Y120.189 E0.02130
G1 X61.895 Y119.564 E0.02122
G1 X62.307 Y119.027 E0.02122
G1 X62.844 Y118.615 E0.02122
G1 X63.469 Y118.356 E0.02122
G1 X64.120 Y118.271 E0.02059
G1 X64.808 Y118.355 E0.02174
G1 X65.436 Y118.615 E0.02130
G1 X65.973 Y119.027 E0.02122
G1 X66.385 Y119.564 E0.02122
G1 X66.636 Y120.171 E0.02059
G1 X66.724 Y120.798 E0.01986
G1 X66.351 Y120.851 F10800.000
G1 F1200
G1 X66.276 Y121.433 E0.01840
G1 X66.055 Y121.966 E0.01810
G1 X65.704 Y122.424 E0.01810
G1 X65.246 Y122.776 E0.01810
G1 X64.712 Y122.997 E0.01810
G1 X64.140 Y123.072 E0.01810
G1 X63.567 Y122.997 E0.01810
G1 X63.034 Y122.776 E0.01810
G1 X62.576 Y122.424 E0.01810
G1 X62.224 Y121.966 E0.01810
G1 X62.010 Y121.449 E0.01753
G1 X61.928 Y120.861 E0.01863
G1 X62.003 Y120.288 E0.01813
G1 X62.224 Y119.754 E0.01810
G1 X62.576 Y119.296 E0.01810
G1 X63.034 Y118.945 E0.01810
G1 X63.567 Y118.724 E0.01810
G1 X64.122 Y118.651 E0.01753
G1 X64.712 Y118.723 E0.01863
G1 X65.246 Y118.945 E0.01813
G1 X65.704 Y119.296 E0.01810
G1 X66.055 Y119.754 E0.01810
G1 X66.269 Y120.271 E0.01753
G1 X66.342 Y120.791 E0.01648
G1 X66.698 Y121.049 F10800.000
G1 F8640
G1 X66.276 Y121.433 E-0.14889
G1 X66.055 Y121.966 E-0.13332
G1 X65.704 Y122.424 E-0.13332
G1 X65.246 Y122.776 E-0.13332
G1 X64.712 Y122.997 E-0.13332
G1 X64.378 Y123.041 E-0.07782
G1 E-0.04000 F2100.00000
G1 Z0.800 F10800.000
G1 X64.120 Y143.271
G1 Z0.200
G1 E0.80000 F2100.00000
G1 F1200
G1 X64.808 Y143.355 E0.02174
G1 X65.436 Y143.615 E0.02130
G1 X65.973 Y144.027 E0.02122
G1 X66.385 Y144.564 E0.02122
G1 X66.636 Y145.171 E0.02059
G1 X66.732 Y145.858 E0.02174
G1 X66.644 Y146.531 E0.02130
G1 X66.385 Y147.156 E0.02122
G1 X65.973 Y147.693 E0.02122
G1 X65.436 Y148.105 E0.02122
G1 X64.829 Y148.356 E0.02059
G1 X64.142 Y148.453 E0.02174
G1 X63.469 Y148.364 E0.02130
G1 X62.844 Y148.105 E0.02122
G1 X62.307 Y147.693 E0.02122
G1 X61.895 Y147.156 E0.02122
G1 X61.644 Y146.549 E0.02059
G1 X61.547 Y145.863 E0.02174
G1 X61.636 Y145.189 E0.02130
G1 X61.895 Y144.564 E0.02122
G1 X62.307 Y144.027 E0.02122
G1 X62.844 Y143.615 E0.02122
G1 X63.469 Y143.356 E0.02122
G1 X64.061 Y143.278 E0.01871
G1 X64.110 Y143.652 F10800.000
G1 F1200
G1 X64.712 Y143.723 E0.01899
G1 X65.246 Y143.945 E0.01813
G1 X65.704 Y144.296 E0.01810
G1 X66.055 Y144.754 E0.01810
G1 X66.269 Y145.271 E0.01753
G1 X66.352 Y145.859 E0.01863
G1 X66.276 Y146.433 E0.01813
G1 X66.055 Y146.966 E0.01810
G1 X65.704 Y147.424 E0.01810
G1 X65.246 Y147.776 E0.01810
G1 X64.729 Y147.990 E0.01753
G1 X64.141 Y148.072 E0.01863
G1 X63.567 Y147.997 E0.01813
G1 X63.034 Y147.776 E0.01810
G1 X62.576 Y147.424 E0.01810
G1 X62.224 Y146.966 E0.01810
G1 X62.010 Y146.449 E0.01753
G1 X61.928 Y145.861 E0.01863
G1 X62.003 Y145.288 E0.01813
G1 X62.224 Y144.754 E0.01810
G1 X62.576 Y144.296 E0.01810
G1 X63.034 Y143.945 E0.01810
G1 X63.567 Y143.724 E0.01810
G1 X64.050 Y143.660 E0.01527
G1 X64.306 Y143.304 F10800.000
G1 F8640
G1 X64.712 Y143.723 E-0.15335
G1 X65.246 Y143.945 E-0.13353
G1 X65.704 Y144.296 E-0.13332
G1 X66.055 Y144.754 E-0.13332
G1 X66.269 Y145.271 E-0.12910
G1 X66.316 Y145.603 E-0.07737
G1 E-0.04000 F2100.00000
G1 Z0.800 F10800.000
G1 X57.809 Y156.693
G1 Z0.200
G1 E0.80000 F2100.00000
G1 F1200
G1 X57.809 Y110.029 E1.46310
G1 X130.473 Y110.037 E2.27832
G1 X130.471 Y156.691 E1.46280
G1 X57.869 Y156.693 E2.27638
G1 X57.512 Y157.015 F10800.000
G1 F1200
G1 X57.436 Y156.920 E0.00383
G1 X57.432 Y156.854 E0.00206
G1 X57.432 Y109.866 E1.47328
G1 X57.436 Y109.800 E0.00206
G1 X57.516 Y109.700 E0.00404
G1 X57.644 Y109.652 E0.00427
G1 X130.705 Y109.660 E2.29078
G1 X130.795 Y109.732 E0.00362
G1 X130.850 Y109.874 E0.00477
G1 X130.848 Y156.837 E1.47250
G1 X130.819 Y156.971 E0.00430
G1 X130.751 Y157.039 E0.00299
G1 X130.617 Y157.068 E0.00430
G1 X57.654 Y157.070 E2.28772
G1 X57.568 Y157.037 E0.00289
G1 X57.521 Y156.893 F10800.000
G1 F8640
G1 X57.436 Y156.920 E-0.04077
G1 X57.432 Y156.854 E-0.01518
G1 X57.432 Y153.805 E-0.70405
G1 E-0.04000 F2100.00000
G1 Z0.800 F10800.000
G1 X57.922 Y155.817
G1 Z0.200
G1 E0.80000 F2100.00000
G1 F1200
G1 X58.515 Y156.410 E0.02629
G1 X59.048 Y156.410 E0.01673
G1 X58.092 Y155.454 E0.04242
G1 X58.092 Y154.920 E0.01673
G1 X59.582 Y156.410 E0.06607
G1 X60.115 Y156.410 E0.01673
G1 X58.092 Y154.387 E0.08973
G1 X58.092 Y153.853 E0.01673
G1 X60.648 Y156.410 E0.11338
G1 X61.182 Y156.410 E0.01673
G1 X58.092 Y153.320 E0.13704
G1 X58.092 Y152.787 E0.01673
G1 X61.715 Y156.410 E0.16069
G1 X62.248 Y156.410 E0.01673
G1 X58.092 Y152.253 E0.18434
G1 X58.092 Y151.720 E0.01673
G1 X62.782 Y156.410 E0.20800
G1 X63.315 Y156.410 E0.01673
G1 X58.092 Y151.187 E0.23165
G1 X58.092 Y150.653 E0.01673
G1 X63.848 Y156.410 E0.25531
G1 X64.382 Y156.410 E0.01673
G1 X58.092 Y150.120 E0.27896
G1 X58.092 Y149.586 E0.01673
G1 X64.915 Y156.410 E0.30262
G1 X65.449 Y156.410 E0.01673
G1 X58.092 Y149.053 E0.32627
G1 X58.092 Y148.520 E0.01673
G1 X65.982 Y156.410 E0.34993
G1 X66.515 Y156.410 E0.01673
G1 X58.092 Y147.986 E0.37358
G1 X58.092 Y147.453 E0.01673
G1 X67.049 Y156.410 E0.39724
G1 X67.582 Y156.410 E0.01673
G1 X58.092 Y146.920 E0.42089
G1 X58.092 Y146.386 E0.01673
G1 X68.115 Y156.410 E0.44455
G1 X68.649 Y156.410 E0.01673
G1 X58.092 Y145.853 E0.46820
G1 X58.092 Y145.319 E0.01673
G1 X69.182 Y156.410 E0.49186
M73 Q2 S51
G1 X69.715 Y156.410 E0.01673
G1 X58.092 Y144.786 E0.51551
M73 P2 R50
G1 X58.092 Y144.253 E0.01673
G1 X70.418 Y156.579 E0.54669
G1 F8640
G1 X68.091 Y154.252 E-0.76000
G1 E-0.04000 F2100.00000
G1 Z0.800 F10800.000
G1 X57.922 Y136.082
G1 Z0.200
G1 E0.80000 F2100.00000
G1 F1200
G1 X64.946 Y143.106 E0.31150
G1 X64.881 Y143.079 E0.00219
G1 X64.316 Y143.010 E0.01786
G1 X58.092 Y136.785 E0.27605
G1 X58.092 Y137.319 E0.01673
G1 X63.800 Y143.027 E0.25318
G1 X63.395 Y143.081 E0.01282
G1 X63.342 Y143.103 E0.00180
G1 X58.092 Y137.852 E0.23286
G1 X58.092 Y138.386 E0.01673
G1 X62.965 Y143.259 E0.21613
G1 X62.701 Y143.368 E0.00896
G1 X62.611 Y143.438 E0.00358
G1 X58.092 Y138.919 E0.20041
G1 X58.092 Y139.452 E0.01673
G1 X62.309 Y143.669 E0.18702
G1 X62.105 Y143.825 E0.00804
G1 X62.030 Y143.924 E0.00389
G1 X58.092 Y139.986 E0.17465
G1 X58.092 Y140.519 E0.01673
G1 X61.798 Y144.226 E0.16438
G1 X61.648 Y144.421 E0.00774
G1 X61.593 Y144.554 E0.00450
G1 X58.092 Y141.052 E0.15529
G1 X58.092 Y141.586 E0.01673
G1 X61.437 Y144.931 E0.14836
G1 X61.361 Y145.115 E0.00626
G1 X61.329 Y145.356 E0.00762
G1 X58.092 Y142.119 E0.14356
G1 X58.092 Y142.653 E0.01673
G1 X61.267 Y145.828 E0.14081
G1 X61.342 Y146.437 E0.01924
G1 X58.092 Y143.186 E0.14416
G1 X58.092 Y143.719 E0.01673
G1 X70.782 Y156.410 E0.56282
G1 X71.315 Y156.410 E0.01673
G1 X63.568 Y148.662 E0.34360
G1 X64.173 Y148.734 E0.01911
G1 X71.849 Y156.410 E0.34042
G1 X72.382 Y156.410 E0.01673
G1 X64.641 Y148.668 E0.34333
G1 X64.904 Y148.631 E0.00834
G1 X65.069 Y148.563 E0.00560
G1 X72.916 Y156.410 E0.34800
G1 X73.449 Y156.410 E0.01673
G1 X65.446 Y148.407 E0.35493
G1 X65.579 Y148.352 E0.00450
G1 X65.774 Y148.202 E0.00774
G1 X73.982 Y156.410 E0.36402
G1 X74.516 Y156.410 E0.01673
G1 X66.076 Y147.970 E0.37429
G1 X66.175 Y147.895 E0.00389
G1 X66.331 Y147.691 E0.00804
G1 X75.049 Y156.410 E0.38666
G1 X75.582 Y156.410 E0.01673
G1 X66.562 Y147.389 E0.40005
G1 X66.632 Y147.299 E0.00358
G1 X66.741 Y147.035 E0.00896
G1 X76.116 Y156.410 E0.41577
G1 X76.649 Y156.410 E0.01673
G1 X66.897 Y146.658 E0.43249
G1 X66.919 Y146.605 E0.00180
G1 X66.973 Y146.200 E0.01282
G1 X77.182 Y156.410 E0.45281
G1 X77.716 Y156.410 E0.01673
G1 X66.994 Y145.688 E0.47551
G1 X66.894 Y145.054 E0.02012
G1 X78.249 Y156.410 E0.50361
G1 X78.783 Y156.409 E0.01673
G1 X58.092 Y135.719 E0.91764
G1 X58.092 Y135.185 E0.01673
G1 X79.316 Y156.409 E0.94129
G1 X79.849 Y156.409 E0.01673
G1 X58.092 Y134.652 E0.96495
G1 X58.092 Y134.119 E0.01673
G1 X80.383 Y156.409 E0.98860
G1 X80.916 Y156.409 E0.01673
G1 X58.092 Y133.585 E1.01226
G1 X58.092 Y133.052 E0.01673
G1 X81.449 Y156.409 E1.03591
G1 X81.983 Y156.409 E0.01673
G1 X58.092 Y132.519 E1.05957
G1 X58.092 Y131.985 E0.01673
G1 X82.516 Y156.409 E1.08322
G1 X83.049 Y156.409 E0.01673
G1 X58.092 Y131.452 E1.10688
G1 X58.092 Y130.918 E0.01673
G1 X83.583 Y156.409 E1.13053
G1 X84.116 Y156.409 E0.01673
G1 X58.092 Y130.385 E1.15418
G1 X58.092 Y129.852 E0.01673
G1 X84.649 Y156.409 E1.17784
G1 X85.183 Y156.409 E0.01673
G1 X58.092 Y129.318 E1.20149
G1 X58.092 Y128.785 E0.01673
G1 X85.716 Y156.409 E1.22515
G1 X86.250 Y156.409 E0.01673
G1 X58.092 Y128.252 E1.24880
G1 X58.092 Y127.718 E0.01673
G1 X86.783 Y156.409 E1.27246
G1 X87.316 Y156.409 E0.01673
G1 X58.092 Y127.185 E1.29611
G1 X58.092 Y126.651 E0.01673
G1 X87.850 Y156.409 E1.31977
G1 X88.383 Y156.409 E0.01673
G1 X58.092 Y126.118 E1.34342
G1 X58.092 Y125.585 E0.01673
G1 X88.916 Y156.409 E1.36708
G1 X89.450 Y156.409 E0.01673
G1 X58.092 Y125.051 E1.39073
G1 X58.092 Y124.518 E0.01673
G1 X89.983 Y156.409 E1.41439
G1 X90.516 Y156.409 E0.01673
G1 X58.092 Y123.985 E1.43804
M73 Q3 S50
M73 P4 R49
G1 X58.092 Y123.451 E0.01673
G1 X91.050 Y156.409 E1.46169
G1 X91.583 Y156.409 E0.01673
G1 X58.092 Y122.918 E1.48535
G1 X58.092 Y122.384 E0.01673
G1 X92.117 Y156.409 E1.50900
G1 X92.650 Y156.409 E0.01673
G1 X58.092 Y121.851 E1.53266
G1 X58.092 Y121.318 E0.01673
G1 X93.183 Y156.409 E1.55631
G1 X93.717 Y156.409 E0.01673
G1 X58.092 Y120.784 E1.57997
G1 X58.092 Y120.251 E0.01673
G1 X94.250 Y156.409 E1.60362
G1 X94.783 Y156.409 E0.01673
G1 X58.092 Y119.718 E1.62728
G1 X58.092 Y119.184 E0.01673
G1 X95.486 Y156.579 E1.65846
G1 F8640
G1 X93.159 Y154.251 E-0.76000
G1 E-0.04000 F2100.00000
G1 Z0.800 F10800.000
G1 X130.155 Y156.578
G1 Z0.200
G1 E0.80000 F2100.00000
G1 F1200
G1 X83.892 Y110.315 E2.05178
G1 X83.358 Y110.315 E0.01673
